X:1
T:Fy let us a to the bridal
Z:Jack Campin: "Embro, Embro", transcription (c) 2001
F:16army/abc/Bridal.abc
S:Joseph Taylor, A Journey to Edenborough in Scotland (1705)
N:original has a C crotchet at the end of the first
N:part and an F crotchet at the end of the second
N:repeats are not marked, but fit the words
M:9/4
L:1/4
Q:3/4=80
K:G Mixolydian
C|F>GF c>dc AGF |G>AG GAc  d2c|F>GF fed cAF |G>FG AGF D2:|
f|fcf  f>gf e>dc|dcd  f>ga g2f|f>ga agf e>dc|def  cAF G2|]

